server/website/public/icons/base/github.svg

<svg width="48" height="48" viewBox="0 0 48 48" fill="none" xmlns="http://www.w3.org/2000/svg">
<path d="M24 0C20.8483 0 17.7274 0.622937 14.8156 1.83324C11.9038 3.04355 9.25804 4.81752 7.02944 7.05387C2.52856 11.5704 0 17.6961 0 24.0834C0 34.7283 6.888 43.7596 16.416 46.9627C17.616 47.1554 18 46.4088 18 45.7585V41.6884C11.352 43.1334 9.936 38.4612 9.936 38.4612C8.832 35.6676 7.272 34.921 7.272 34.921C5.088 33.4278 7.44 33.476 7.44 33.476C9.84 33.6446 11.112 35.9566 11.112 35.9566C13.2 39.6172 16.728 38.5335 18.096 37.9555C18.312 36.3901 18.936 35.3304 19.608 34.7283C14.28 34.1262 8.688 32.055 8.688 22.8793C8.688 20.206 9.6 18.0626 11.16 16.3527C10.92 15.7506 10.08 13.2459 11.4 9.99463C11.4 9.99463 13.416 9.34437 18 12.4511C19.896 11.9213 21.96 11.6564 24 11.6564C26.04 11.6564 28.104 11.9213 30 12.4511C34.584 9.34437 36.6 9.99463 36.6 9.99463C37.92 13.2459 37.08 15.7506 36.84 16.3527C38.4 18.0626 39.312 20.206 39.312 22.8793C39.312 32.0791 33.696 34.1021 28.344 34.7042C29.208 35.4508 30 36.9199 30 39.1597V45.7585C30 46.4088 30.384 47.1794 31.608 46.9627C41.136 43.7355 48 34.7283 48 24.0834C48 20.9208 47.3792 17.789 46.1731 14.8671C44.967 11.9452 43.1992 9.29023 40.9706 7.05387C38.742 4.81752 36.0962 3.04355 33.1844 1.83324C30.2726 0.622937 27.1517 0 24 0Z" fill="black"/>
</svg>

<svg width="48" height="48" fill="none" xmlns="http://www.w3.org/2000/svg"><path d="M24 0c-3.152 0-6.273.623-9.184 1.833a23.995 23.995 0 00-7.787 5.22A24.126 24.126 0 000 24.084c0 10.645 6.888 19.677 16.416 22.88 1.2.192 1.584-.554 1.584-1.205v-4.07c-6.648 1.445-8.064-3.227-8.064-3.227-1.104-2.793-2.664-3.54-2.664-3.54-2.184-1.493.168-1.445.168-1.445 2.4.169 3.672 2.48 3.672 2.48 2.088 3.661 5.616 2.577 6.984 2 .216-1.566.84-2.626 1.512-3.228-5.328-.602-10.92-2.673-10.92-11.849 0-2.673.912-4.816 2.472-6.526-.24-.602-1.08-3.107.24-6.358 0 0 2.016-.65 6.6 2.456 1.896-.53 3.96-.795 6-.795s4.104.265 6 .795c4.584-3.107 6.6-2.456 6.6-2.456 1.32 3.25.48 5.756.24 6.358 1.56 1.71 2.472 3.853 2.472 6.526 0 9.2-5.616 11.223-10.968 11.825.864.747 1.656 2.216 1.656 4.456v6.599c0 .65.384 1.42 1.608 1.204C41.136 43.736 48 34.728 48 24.083c0-3.162-.62-6.294-1.827-9.216a24.09 24.09 0 00-5.202-7.813 23.995 23.995 0 00-7.787-5.22A23.928 23.928 0 0024 0z" fill="#000"/></svg>
